sources/design/Outline/8.svg

<svg:svg xmlns:cc="http://creativecommons.org/ns#" xmlns:dc="http://purl.org/dc/elements/1.1/" xmlns:inkscape="http://www.inkscape.org/namespaces/inkscape" xmlns:rdf="http://www.w3.org/1999/02/22-rdf-syntax-ns#" xmlns:sodipodi="http://sodipodi.sourceforge.net/DTD/sodipodi-0.dtd" xmlns:svg="http://www.w3.org/2000/svg" xml:space="preserve" width="1000" height="1000" version="1.1" style="clip-rule:evenodd;fill-rule:evenodd;image-rendering:optimizeQuality;shape-rendering:geometricPrecision;text-rendering:geometricPrecision" viewBox="0 0 1000 1000" id="svg10" sodipodi:docname="8.svg" inkscape:version="1.1.1 (3bf5ae0d25, 2021-09-20)"><svg:metadata id="metadata14"><rdf:RDF><cc:Work rdf:about=""><dc:format>image/svg+xml</dc:format><dc:type rdf:resource="http://purl.org/dc/dcmitype/StillImage" /></cc:Work></rdf:RDF></svg:metadata><sodipodi:namedview pagecolor="#ffffff" bordercolor="#666666" borderopacity="1" objecttolerance="10" gridtolerance="10" guidetolerance="10" inkscape:pageopacity="0" inkscape:pageshadow="2" inkscape:window-width="1920" inkscape:window-height="1009" id="namedview12" showgrid="false" inkscape:zoom="0.84890885" inkscape:cx="229.11765" inkscape:cy="394.62423" inkscape:window-x="1920" inkscape:window-y="0" inkscape:window-maximized="1" inkscape:current-layer="svg10" showguides="true" inkscape:guide-bbox="true" inkscape:document-rotation="0" inkscape:pagecheckerboard="0"><sodipodi:guide position="0,1000" orientation="0,1" id="guide16" inkscape:label="" inkscape:locked="true" inkscape:color="rgb(0,0,255)" /><sodipodi:guide position="1763.3122,2036.1693" orientation="1000,0" id="guide18" /><sodipodi:guide position="0,200" orientation="0,1" id="guide20" inkscape:label="base" inkscape:locked="true" inkscape:color="rgb(0,0,255)" /><inkscape:grid type="xygrid" id="grid24" originx="-473.37552" originy="-489.69235" /><sodipodi:guide position="0,0" orientation="0,1" id="guide34" inkscape:label="bottom" inkscape:locked="true" inkscape:color="rgb(0,0,255)" /><sodipodi:guide position="225.05109,1693.3186" orientation="0,1" id="guide44" inkscape:label="" inkscape:locked="false" inkscape:color="rgb(0,0,255)" /><sodipodi:guide position="0,900" orientation="0,1" id="guide46" inkscape:label="" inkscape:locked="true" inkscape:color="rgb(0,0,255)" /><sodipodi:guide position="424.77093,688.50376" orientation="-1,0" id="guide841" inkscape:label="width" inkscape:locked="false" inkscape:color="rgb(0,0,255)" /></sodipodi:namedview>
 <svg:defs id="defs4"><inkscape:path-effect effect="fillet_chamfer" id="path-effect854" is_visible="true" lpeversion="1" satellites_param="F,0,0,1,0,0,0,1 @ F,0,0,1,0,0,0,1 @ F,0,0,1,0,0,0,1 @ F,0,0,1,0,0,0,1 @ F,0,0,1,0,0,0,1 @ F,0,0,1,0,0,0,1 @ F,0,0,1,0,0,0,1 @ F,0,0,1,0,0,0,1 @ F,0,0,1,0,0,0,1 @ F,0,0,1,0,0,0,1 @ F,0,0,1,0,0,0,1 @ F,0,0,1,0,19.369245,0,1 @ F,0,0,1,0,14.518452,0,1 @ F,0,0,1,0,0,0,1 @ F,0,0,1,0,0,0,1 @ F,0,0,1,0,0,0,1 @ F,0,0,1,0,0,0,1 @ F,0,0,1,0,0,0,1 @ F,0,0,1,0,0,0,1 @ F,0,0,1,0,0,0,1 @ F,0,0,1,0,0,0,1 @ F,0,0,1,0,0,0,1 @ F,0,0,1,0,0,0,1 @ F,0,0,1,0,0,0,1 @ F,0,0,1,0,0,0,1 @ F,0,0,1,0,0,0,1 @ F,0,0,1,0,0,0,1 @ F,0,0,1,0,0,0,1 @ F,0,0,1,0,0,0,1 @ F,0,0,1,0,0,0,1 @ F,0,0,1,0,0,0,1 @ F,0,0,1,0,17.760895,0,1 @ F,0,0,1,0,10.749967,0,1 @ F,0,0,1,0,0,0,1 @ F,0,0,1,0,0,0,1 @ F,0,0,1,0,0,0,1 @ F,0,0,1,0,0,0,1" unit="px" method="auto" mode="F" radius="0" chamfer_steps="1" flexible="false" use_knot_distance="true" apply_no_radius="true" apply_with_radius="true" only_selected="true" hide_knots="false" /><inkscape:path-effect effect="spiro" id="path-effect855" is_visible="true" lpeversion="1" /><inkscape:path-effect effect="spiro" id="path-effect878" is_visible="true" lpeversion="1" /><inkscape:path-effect effect="spiro" id="path-effect875" is_visible="true" lpeversion="1" /><inkscape:path-effect effect="spiro" id="path-effect856" is_visible="true" lpeversion="1" /><inkscape:path-effect effect="spiro" id="path-effect852" is_visible="true" lpeversion="1" /><inkscape:path-effect effect="spiro" id="path-effect850" is_visible="true" lpeversion="1" /><inkscape:path-effect effect="spiro" id="path-effect851" is_visible="true" lpeversion="1" />
  <svg:style type="text/css" id="style2">
   
    .fil0 {fill:#EF7F1A;fill-rule:nonzero}
   
  </svg:style>
 <inkscape:path-effect effect="spiro" id="path-effect1214" is_visible="true" lpeversion="1" /><inkscape:path-effect effect="spiro" id="path-effect1195" is_visible="true" lpeversion="1" /><inkscape:path-effect effect="spiro" id="path-effect992" is_visible="true" lpeversion="1" /><inkscape:path-effect effect="spiro" id="path-effect1060" is_visible="true" lpeversion="1" /><inkscape:path-effect effect="spiro" id="path-effect1047" is_visible="true" lpeversion="1" /><inkscape:path-effect effect="spiro" id="path-effect1085" is_visible="true" lpeversion="1" /><inkscape:path-effect effect="spiro" id="path-effect1286" is_visible="true" lpeversion="1" /><inkscape:path-effect effect="spiro" id="path-effect1305" is_visible="true" lpeversion="1" /></svg:defs>
 
<svg:g id="path853"><svg:path style="color:#000000;clip-rule:nonzero;fill:#1a5fb4;fill-rule:nonzero;stroke-linecap:round;stroke-linejoin:round;-inkscape-stroke:none;paint-order:fill stroke markers;shape-rendering:auto" d="M 219.07422,62.558594 C 164.37112,62.596434 111.89683,85.869542 73.480469,123.62695 C 32.718987999999996,163.68926 9.104846499999994,217.88392 3.5371094000000056,273.46875 C 0.49744460000000545,303.81487 2.6617988000000055,335.19363 11.767578000000006,365.33984 C 20.896134000000004,395.56146 36.96019400000001,424.1049 60.041016000000006,447.05664 C 65.68997900000001,452.67401 71.609149,457.81856 77.722656,462.55859000000004 C 76.129997,463.92027 74.448473,465.1847 72.875,466.56641 C 52.442681,484.5086 32.683905,504.91709000000003 16.677734,529.27539 C 0.6119705000000017,553.72438 -11.479287,582.0774 -15.052733999999997,613.0390600000001 C -19.492112,651.50346 -10.191799999999997,689.7611200000001 8.271484400000002,722.30078 C 26.651011,754.6928300000001 53.485305,780.75359 83.857422,799.9023400000001 C 151.21465999999998,842.36917 237.58051999999998,850.67843 311.52148,820.1191400000001 C 352.73252,803.0869100000001 389.57644,774.3305600000001 414.29883,735.8085900000001 C 439.13661,697.1068300000001 450.58397,649.7158100000001 442.95117,603.20117 C 434.70986,552.97816 405.78103999999996,510.59509 370.85937,478.72852000000006 C 361.00609000000003,469.73724000000004 350.68783,461.61553000000004 340.12109000000004,454.05469000000005 C 362.73488000000003,434.15605000000005 381.87700000000007,410.27533000000005 395.96680000000003,383.33203000000003 C 415.47790000000003,346.02180000000004 424.99095000000005,303.60657000000003 422.33008,261.19336000000004 C 419.19885,211.28288000000003 399.07215,162.77694000000002 364.32422,126.00391000000005 C 329.49073000000004,89.14033500000005 281.25377000000003,65.75172200000006 230.04102000000003,62.86328100000005 C 226.37783000000002,62.65667500000005 222.72109000000003,62.55607100000005 219.07422000000003,62.55859400000005 L 219.07422,62.558594 M 226.66210999999998,122.76758000000001 C 261.49478999999997,124.73217000000001 296.3556,141.43606 320.71289,167.21289000000002 C 345.15574000000004,193.08026 360.1823,228.84662000000003 362.44727,264.94922 C 364.38537,295.84172 357.32467,327.75022 342.79883,355.52734000000004 C 329.41809,381.11475 309.49204000000003,403.61147000000005 285.77344,420.73633000000007 C 282.63657,419.0597900000001 279.51733,417.5467100000001 276.38086,415.92383000000007 C 285.87595,409.89213000000007 295.21542,403.02479000000005 304.14648,394.9492200000001 C 320.8069,379.8846700000001 334.76871,361.2334800000001 343.73046999999997,339.5957000000001 C 352.72797999999995,317.8715900000001 356.40108999999995,293.66165000000007 352.76757999999995,269.4746100000001 C 347.74666999999994,236.05220000000008 329.37242999999995,206.6731500000001 303.55859,186.4726600000001 C 277.90797,166.3998800000001 246.40078,156.3190300000001 214.87890999999996,155.7636700000001 C 180.46135999999996,155.1573000000001 145.66150999999996,165.9500700000001 118.24413999999996,188.8066400000001 C 90.58660599999996,211.8634200000001 72.52488699999995,245.8665800000001 71.56249999999996,283.0918000000001 C 70.93167599999995,307.4921200000001 77.69458099999996,330.64769000000007 88.66210899999996,350.7089800000001 C 99.56884899999996,370.6590900000001 114.36093999999996,387.2309800000001 130.46874999999994,400.9492200000001 C 135.87199999999996,405.55090000000007 141.42414999999994,409.7290200000001 147.02538999999996,413.7382800000001 C 140.80156999999997,417.27724000000006 134.71216999999996,421.0070300000001 128.68749999999994,424.8457000000001 C 118.85966999999994,418.7839100000001 109.94192999999994,412.0635200000001 102.34765999999995,404.5117200000001 C 87.11849799999995,389.3677300000001 75.69855099999995,369.4879700000001 69.20507799999996,347.9902300000001 C 62.688828999999956,326.4171000000001 60.89317699999996,302.8612800000001 63.23828099999996,279.4492200000001 C 67.49818299999995,236.92101000000008 85.97450299999996,195.47349000000008 115.53710999999996,166.41797000000008 C 144.88373999999996,137.5747100000001 186.82545999999996,120.52076000000008 226.66210999999996,122.76758000000008 L 226.66210999999998,122.76758000000001 M 213.82226999999997,215.75391000000002 C 233.03289999999998,216.09236 252.27312999999998,222.52724 266.58203,233.72461 C 280.72772999999995,244.79426 290.91657,261.63374 293.43359,278.38867 C 295.27902,290.673 293.41179,304.28709 288.29686999999996,316.63671999999997 C 283.14624999999995,329.07268999999997 274.59966,340.77248999999995 263.9043,350.44336 C 249.94204999999997,363.06818999999996 231.17372999999998,372.65488 210.35742,382.40625 C 195.19575999999998,374.12115 181.27309,365.40421 169.37304999999998,355.26953 C 157.68037999999999,345.31145999999995 147.91848999999996,334.01826 141.30858999999998,321.92773 C 134.75947999999997,309.94841 131.23004999999998,296.74628 131.54296999999997,284.64258 C 132.00971999999996,266.58873 141.84751999999997,247.24443000000002 156.66405999999998,234.89258 C 171.72077,222.34052 192.95084999999997,215.38619 213.82226999999997,215.75391000000002 M 209.27733999999998,449.4707 C 213.32209999999998,451.45228000000003 217.24604,453.37210000000005 221.20702999999997,455.29883 C 217.79869999999997,456.8456 214.45280999999997,458.41693000000004 210.97851999999997,459.99805000000003 C 206.37177999999997,458.38277000000005 201.63004999999998,456.67295 197.12890999999996,455.08398000000005 C 201.03393999999997,453.19723000000005 205.16099999999997,451.32603000000006 209.27733999999995,449.4707000000001 L 209.27733999999998,449.4707 M 286.62109,490.49609000000004 C 302.46727999999996,500.37945 317.26500999999996,511.04832000000005 330.41602,523.0488300000001 C 357.8018,548.0387900000001 378.32485,579.9044200000001 383.74219,612.9179700000001 C 388.71382,643.21536 381.00693,676.5931400000001 363.80273,703.4003900000001 C 346.48314,730.3874500000002 319.33002999999997,751.9689200000001 288.60352,764.6679700000001 C 233.8755,787.28668 166.27224,780.93355 115.85742,749.14844 C 92.841565,734.63759 73.221854,715.1896 60.455078,692.68945 C 47.77206,670.33692 41.753999,644.15032 44.550781,619.91797 C 46.816928000000004,600.28324 54.916072,580.3425199999999 66.820312,562.22656 C 78.784146,544.01992 94.626116,527.3170399999999 112.46484000000001,511.65234 C 119.20922000000002,505.72990999999996 126.17543,500.08907 133.27539000000002,494.64061999999996 C 134.02786,494.97213999999997 134.78148000000002,495.37558999999993 135.53320000000002,495.70116999999993 C 137.48435000000003,496.54624999999993 139.41113,497.25893999999994 141.35742000000002,498.0683599999999 C 133.12869,504.0381299999999 125.11466000000001,510.6039099999999 117.56836000000001,518.1230499999999 C 105.31697000000001,530.33034 94.43990800000002,544.7367099999999 86.62890600000001,561.45508 C 78.78483400000002,578.2442299999999 74.20804100000001,597.0811299999999 74.81835900000002,616.7441399999999 C 75.42860900000001,636.4049499999999 81.19290200000002,655.2059999999999 90.75781200000002,671.6914099999999 C 100.29607000000001,688.1308799999999 113.34551000000002,701.8539099999999 128.37891000000002,712.44531 C 158.44878000000003,733.63029 194.60977000000003,741.2550799999999 228.96680000000003,739.2382799999999 C 261.76285,737.3131099999999 295.29726000000005,726.48273 322.09961000000004,703.6289099999999 C 335.50178000000005,692.2011499999999 346.82593,678.0366099999999 354.69336000000004,661.5937499999999 C 362.58240000000006,645.1057299999999 366.78125000000006,626.7259499999999 366.11328000000003,607.8496099999999 C 365.41676,588.1665899999998 359.51043000000004,569.6836499999998 350.44531,553.5156199999999 C 341.42027,537.4190899999999 329.46685,523.8994199999999 316.29883,512.7148399999999 C 306.39155,504.2998499999999 295.92923,497.2595699999999 285.24414,491.1953099999999 C 285.70444000000003,490.9525099999999 286.16074000000003,490.7412899999999 286.62109000000004,490.49608999999987 L 286.62109,490.49609000000004 M 214.13476999999997,524.8828100000001 C 238.65171999999998,534.06137 260.84826999999996,544.33825 277.45703,558.4453100000001 C 286.04526999999996,565.73994 293.17627,574.05749 298.11132999999995,582.85937 C 303.00629999999995,591.58977 305.8374299999999,601.12856 306.15038999999996,609.97266 C 306.44971,618.43112 304.48662999999993,627.51221 300.57030999999995,635.69727 C 296.63238999999993,643.92749 290.5806999999999,651.65363 283.16991999999993,657.97266 C 268.3463699999999,670.6124 247.26493999999994,678.05935 225.45116999999993,679.33984 C 202.62861999999993,680.67955 179.68987999999993,675.20033 162.93554999999992,663.39648 C 154.55682999999993,657.49347 147.48853999999992,649.91203 142.65429999999992,641.58008 C 137.84670999999992,633.29405 135.0673099999999,623.84723 134.78905999999992,614.88281 C 134.5097399999999,605.88362 136.69407999999993,596.0427 140.98827999999992,586.85156 C 145.31554999999992,577.5896399999999 151.85583999999992,568.65811 159.9179699999999,560.625 C 174.0413399999999,546.55247 193.02696999999992,535.27475 214.13476999999992,524.88281 L 214.13476999999997,524.8828100000001" id="path26697" /></svg:g></svg:svg>

<svg:svg xmlns:cc="http://creativecommons.org/ns#" xmlns:dc="http://purl.org/dc/elements/1.1/" xmlns:inkscape="http://www.inkscape.org/namespaces/inkscape" xmlns:rdf="http://www.w3.org/1999/02/22-rdf-syntax-ns#" xmlns:sodipodi="http://sodipodi.sourceforge.net/DTD/sodipodi-0.dtd" xmlns:svg="http://www.w3.org/2000/svg" xml:space="preserve" width="1000" height="1000" version="1.1" style="clip-rule:evenodd;fill-rule:evenodd;image-rendering:optimizeQuality;shape-rendering:geometricPrecision;text-rendering:geometricPrecision" viewBox="0 0 1000 1000" id="svg10" sodipodi:docname="8.svg" inkscape:version="1.1.1 (3bf5ae0d25, 2021-09-20)"><svg:metadata id="metadata14"><rdf:RDF><cc:Work rdf:about=""><dc:format>image/svg+xml</dc:format><dc:type rdf:resource="http://purl.org/dc/dcmitype/StillImage" /></cc:Work></rdf:RDF></svg:metadata><sodipodi:namedview pagecolor="#ffffff" bordercolor="#666666" borderopacity="1" objecttolerance="10" gridtolerance="10" guidetolerance="10" inkscape:pageopacity="0" inkscape:pageshadow="2" inkscape:window-width="1920" inkscape:window-height="1009" id="namedview12" showgrid="false" inkscape:zoom="0.84890885" inkscape:cx="229.11765" inkscape:cy="394.62423" inkscape:window-x="1920" inkscape:window-y="0" inkscape:window-maximized="1" inkscape:current-layer="svg10" showguides="true" inkscape:guide-bbox="true" inkscape:document-rotation="0" inkscape:pagecheckerboard="0"><sodipodi:guide position="0,1000" orientation="0,1" id="guide16" inkscape:label="" inkscape:locked="true" inkscape:color="rgb(0,0,255)" /><sodipodi:guide position="1763.3122,2036.1693" orientation="1000,0" id="guide18" /><sodipodi:guide position="0,200" orientation="0,1" id="guide20" inkscape:label="base" inkscape:locked="true" inkscape:color="rgb(0,0,255)" /><inkscape:grid type="xygrid" id="grid24" originx="-473.37552" originy="-489.69235" /><sodipodi:guide position="0,0" orientation="0,1" id="guide34" inkscape:label="bottom" inkscape:locked="true" inkscape:color="rgb(0,0,255)" /><sodipodi:guide position="225.05109,1693.3186" orientation="0,1" id="guide44" inkscape:label="" inkscape:locked="false" inkscape:color="rgb(0,0,255)" /><sodipodi:guide position="0,900" orientation="0,1" id="guide46" inkscape:label="" inkscape:locked="true" inkscape:color="rgb(0,0,255)" /><sodipodi:guide position="424.77093,688.50376" orientation="-1,0" id="guide841" inkscape:label="width" inkscape:locked="false" inkscape:color="rgb(0,0,255)" /></sodipodi:namedview>
 <svg:defs id="defs4"><inkscape:path-effect effect="fillet_chamfer" id="path-effect854" is_visible="true" lpeversion="1" satellites_param="F,0,0,1,0,0,0,1 @ F,0,0,1,0,0,0,1 @ F,0,0,1,0,0,0,1 @ F,0,0,1,0,0,0,1 @ F,0,0,1,0,0,0,1 @ F,0,0,1,0,0,0,1 @ F,0,0,1,0,0,0,1 @ F,0,0,1,0,0,0,1 @ F,0,0,1,0,0,0,1 @ F,0,0,1,0,0,0,1 @ F,0,0,1,0,0,0,1 @ F,0,0,1,0,19.369245,0,1 @ F,0,0,1,0,14.518452,0,1 @ F,0,0,1,0,0,0,1 @ F,0,0,1,0,0,0,1 @ F,0,0,1,0,0,0,1 @ F,0,0,1,0,0,0,1 @ F,0,0,1,0,0,0,1 @ F,0,0,1,0,0,0,1 @ F,0,0,1,0,0,0,1 @ F,0,0,1,0,0,0,1 @ F,0,0,1,0,0,0,1 @ F,0,0,1,0,0,0,1 @ F,0,0,1,0,0,0,1 @ F,0,0,1,0,0,0,1 @ F,0,0,1,0,0,0,1 @ F,0,0,1,0,0,0,1 @ F,0,0,1,0,0,0,1 @ F,0,0,1,0,0,0,1 @ F,0,0,1,0,0,0,1 @ F,0,0,1,0,0,0,1 @ F,0,0,1,0,17.760895,0,1 @ F,0,0,1,0,10.749967,0,1 @ F,0,0,1,0,0,0,1 @ F,0,0,1,0,0,0,1 @ F,0,0,1,0,0,0,1 @ F,0,0,1,0,0,0,1" unit="px" method="auto" mode="F" radius="0" chamfer_steps="1" flexible="false" use_knot_distance="true" apply_no_radius="true" apply_with_radius="true" only_selected="true" hide_knots="false" /><inkscape:path-effect effect="spiro" id="path-effect855" is_visible="true" lpeversion="1" /><inkscape:path-effect effect="spiro" id="path-effect878" is_visible="true" lpeversion="1" /><inkscape:path-effect effect="spiro" id="path-effect875" is_visible="true" lpeversion="1" /><inkscape:path-effect effect="spiro" id="path-effect856" is_visible="true" lpeversion="1" /><inkscape:path-effect effect="spiro" id="path-effect852" is_visible="true" lpeversion="1" /><inkscape:path-effect effect="spiro" id="path-effect850" is_visible="true" lpeversion="1" /><inkscape:path-effect effect="spiro" id="path-effect851" is_visible="true" lpeversion="1" />
  <svg:style type="text/css" id="style2">
   
    .fil0 {fill:#EF7F1A;fill-rule:nonzero}
   
  </svg:style>
 <inkscape:path-effect effect="spiro" id="path-effect1214" is_visible="true" lpeversion="1" /><inkscape:path-effect effect="spiro" id="path-effect1195" is_visible="true" lpeversion="1" /><inkscape:path-effect effect="spiro" id="path-effect992" is_visible="true" lpeversion="1" /><inkscape:path-effect effect="spiro" id="path-effect1060" is_visible="true" lpeversion="1" /><inkscape:path-effect effect="spiro" id="path-effect1047" is_visible="true" lpeversion="1" /><inkscape:path-effect effect="spiro" id="path-effect1085" is_visible="true" lpeversion="1" /><inkscape:path-effect effect="spiro" id="path-effect1286" is_visible="true" lpeversion="1" /><inkscape:path-effect effect="spiro" id="path-effect1305" is_visible="true" lpeversion="1" /></svg:defs>
 
<svg:g id="path853"><svg:path style="color:#000000;clip-rule:nonzero;fill:#1a5fb4;fill-rule:nonzero;stroke-linecap:round;stroke-linejoin:round;-inkscape-stroke:none;shape-rendering:auto" d="m 219.07422,62.558594 c -54.7031,0.03784 -107.17739,23.310948 -145.593751,61.068356 -40.761481,40.06231 -64.3756225,94.25697 -69.9433596,149.8418 -3.0396648,30.34612 -0.8753106,61.72488 8.2304686,91.87109 9.128556,30.22162 25.192616,58.76506 48.273438,81.7168 5.648963,5.61737 11.568133,10.76192 17.68164,15.50195 -1.592659,1.36168 -3.274183,2.62611 -4.847656,4.00782 -20.432319,17.94219 -40.191095,38.35068 -56.197266,62.70898 -16.0657635,24.44899 -28.157021,52.80201 -31.730468,83.76367 -4.439378,38.4644 4.860934,76.72206 23.3242184,109.26172 18.3795266,32.39205 45.2138206,58.45281 75.5859376,77.60156 67.357238,42.46683 153.723098,50.77609 227.664058,20.2168 41.21104,-17.03223 78.05496,-45.78858 102.77735,-84.31055 24.83778,-38.70176 36.28514,-86.09278 28.65234,-132.60742 -8.24131,-50.22301 -37.17013,-92.60608 -72.0918,-124.47265 -9.85328,-8.99128 -20.17154,-17.11299 -30.73828,-24.67383 22.61379,-19.89864 41.75591,-43.77936 55.84571,-70.72266 19.5111,-37.31023 29.02415,-79.72546 26.36328,-122.13867 -3.13123,-49.91048 -23.25793,-98.41642 -58.00586,-135.18945 -34.83349,-36.863575 -83.07045,-60.252188 -134.2832,-63.140629 -3.66319,-0.206606 -7.31993,-0.30721 -10.9668,-0.304687 z m 7.58789,60.208986 c 34.83268,1.96459 69.69349,18.66848 94.05078,44.44531 24.44285,25.86737 39.46941,61.63373 41.73438,97.73633 1.9381,30.8925 -5.1226,62.801 -19.64844,90.57812 -13.38074,25.58741 -33.30679,48.08413 -57.02539,65.20899 -3.13687,-1.67654 -6.25611,-3.18962 -9.39258,-4.8125 9.49509,-6.0317 18.83456,-12.89904 27.76562,-20.97461 16.66042,-15.06455 30.62223,-33.71574 39.58399,-55.35352 8.99751,-21.72411 12.67062,-45.93405 9.03711,-70.12109 -5.02091,-33.42241 -23.39515,-62.80146 -49.20899,-83.00195 -25.65062,-20.07278 -57.15781,-30.15363 -88.67968,-30.70899 -34.41755,-0.60637 -69.2174,10.1864 -96.63477,33.04297 -27.657534,23.05678 -45.719253,57.05994 -46.68164,94.28516 -0.630824,24.40032 6.132081,47.55589 17.099609,67.61718 10.90674,19.95011 25.698831,36.522 41.806641,50.24024 5.40325,4.60168 10.9554,8.7798 16.55664,12.78906 -6.22382,3.53896 -12.31322,7.26875 -18.33789,11.10742 -9.82783,-6.06179 -18.74557,-12.78218 -26.33984,-20.33398 -15.229162,-15.14399 -26.649109,-35.02375 -33.142582,-56.52149 -6.516249,-21.57313 -8.311901,-45.12895 -5.966797,-68.54101 4.259902,-42.52821 22.736222,-83.97573 52.298829,-113.03125 29.34663,-28.84326 71.28835,-45.89721 111.125,-43.65039 z m -12.83984,92.98633 c 19.21063,0.33845 38.45086,6.77333 52.75976,17.9707 14.1457,11.06965 24.33454,27.90913 26.85156,44.66406 1.84543,12.28433 -0.0218,25.89842 -5.13672,38.24805 -5.15062,12.43597 -13.69721,24.13577 -24.39257,33.80664 -13.96225,12.62483 -32.73057,22.21152 -53.54688,31.96289 -15.16166,-8.2851 -29.08433,-17.00204 -40.98437,-27.13672 -11.69267,-9.95807 -21.45456,-21.25127 -28.06446,-33.3418 -6.54911,-11.97932 -10.07854,-25.18145 -9.76562,-37.28515 0.46675,-18.05385 10.30455,-37.39815 25.12109,-49.75 15.05671,-12.55206 36.28679,-19.50639 57.15821,-19.13867 z m -4.54493,233.71679 c 4.04476,1.98158 7.9687,3.9014 11.92969,5.82813 -3.40833,1.54677 -6.75422,3.1181 -10.22851,4.69922 -4.60674,-1.61528 -9.34847,-3.3251 -13.84961,-4.91407 3.90503,-1.88675 8.03209,-3.75795 12.14843,-5.61328 z m 77.34375,41.02539 c 15.84619,9.88336 30.64392,20.55223 43.79493,32.55274 27.38578,24.98996 47.90883,56.85559 53.32617,89.86914 4.97163,30.29739 -2.73526,63.67517 -19.93946,90.48242 -17.31959,26.98706 -44.4727,48.56853 -75.19921,61.26758 C 233.8755,787.28668 166.27224,780.93355 115.85742,749.14844 92.841565,734.63759 73.221854,715.1896 60.455078,692.68945 47.77206,670.33692 41.753999,644.15032 44.550781,619.91797 c 2.266147,-19.63473 10.365291,-39.57545 22.269531,-57.69141 11.963834,-18.20664 27.805804,-34.90952 45.644528,-50.57422 6.74438,-5.92243 13.71059,-11.56327 20.81055,-17.01172 0.75247,0.33152 1.50609,0.73497 2.25781,1.06055 1.95115,0.84508 3.87793,1.55777 5.82422,2.36719 -8.22873,5.96977 -16.24276,12.53555 -23.78906,20.05469 -12.25139,12.20729 -23.128452,26.61366 -30.939454,43.33203 -7.844072,16.78915 -12.420865,35.62605 -11.810547,55.28906 0.61025,19.66081 6.374543,38.46186 15.939453,54.94727 9.538258,16.43947 22.587698,30.1625 37.621098,40.7539 30.06987,21.18498 66.23086,28.80977 100.58789,26.79297 32.79605,-1.92517 66.33046,-12.75555 93.13281,-35.60937 13.40217,-11.42776 24.72632,-25.5923 32.59375,-42.03516 7.88904,-16.48802 12.08789,-34.8678 11.41992,-53.74414 -0.69652,-19.68302 -6.60285,-38.16596 -15.66797,-54.33399 -9.02504,-16.09653 -20.97846,-29.6162 -34.14648,-40.80078 -9.90728,-8.41499 -20.3696,-15.45527 -31.05469,-21.51953 0.4603,-0.2428 0.9166,-0.45402 1.37695,-0.69922 z m -72.48632,34.38672 c 24.51695,9.17856 46.7135,19.45544 63.32226,33.5625 8.58824,7.29463 15.71924,15.61218 20.6543,24.41406 4.89497,8.7304 7.7261,18.26919 8.03906,27.11329 0.29932,8.45846 -1.66376,17.53955 -5.58008,25.72461 -3.93792,8.23022 -9.98961,15.95636 -17.40039,22.27539 -14.82355,12.63974 -35.90498,20.08669 -57.71875,21.36718 -22.82255,1.33971 -45.76129,-4.13951 -62.51562,-15.94336 -8.37872,-5.90301 -15.44701,-13.48445 -20.28125,-21.8164 -4.80759,-8.28603 -7.58699,-17.73285 -7.86524,-26.69727 -0.27932,-8.99919 1.90502,-18.84011 6.19922,-28.03125 4.32727,-9.26192 10.86756,-18.19345 18.92969,-26.22656 14.12337,-14.07253 33.109,-25.35025 54.2168,-35.74219 z" id="path26615" /></svg:g></svg:svg>
